chains/immutablezkevm/logo.svg

<svg xmlns="http://www.w3.org/2000/svg" fill="none" viewBox="0 0 49.675925925925924 50.370629370629366" style="max-height: 500px" width="49.675925925925924" height="50.370629370629366">
<g clip-path="url(#clip0_1838_4945)">
<path fill="white" d="M60.0156 15.7659H64.1305V37.3492H60.0156V15.7659ZM80.6461 24.2878C81.7627 22.4943 83.6387 21.6371 85.6822 21.6371L85.6934 21.6314C87.5694 21.6314 88.9429 22.1729 89.8195 23.2557C90.6849 24.3554 91.1148 25.8161 91.1148 27.6378V37.3495H87.1506V28.1059C87.1506 26.0587 86.4192 25.0209 84.7945 25.0209H84.5544C82.7175 25.0209 81.2882 26.6283 81.2882 28.7827V37.3495H77.324V28.1059C77.324 26.0587 76.5647 25.0209 74.9399 25.0209H74.6999C72.8685 25.0209 71.4225 26.6283 71.4225 28.7827V37.3495H67.4583V21.936H71.4225V24.1186C72.4498 22.4492 74.1527 21.6371 75.984 21.6371C78.1448 21.6371 79.8086 22.5394 80.6461 24.2878ZM112.041 21.6371C109.998 21.6371 108.122 22.4943 107.005 24.2878C106.173 22.5394 104.504 21.6371 102.343 21.6371C100.512 21.6371 98.8089 22.4492 97.7815 24.1186V21.936H93.8174V37.3495H97.7815V28.7827C97.7815 26.6283 99.2276 25.0209 101.059 25.0209H101.299C102.924 25.0209 103.683 26.0587 103.683 28.1059V37.3495H107.647V28.7827C107.647 26.6283 109.077 25.0209 110.913 25.0209H111.154C112.778 25.0209 113.51 26.0587 113.51 28.1059V37.3495H117.474V27.6378C117.474 25.8161 117.044 24.3554 116.179 23.2557C115.302 22.1729 113.928 21.6314 112.052 21.6314L112.041 21.6371ZM142.074 25.1789V32.2681L142.069 32.2624C142.069 33.678 142.353 33.9657 143.755 33.9657H145.943V37.3551H142.069C139.489 37.3551 138.104 35.9565 138.104 33.3509V25.1789H133.604V37.3551H129.64V35.0992C128.702 36.6784 127.077 37.6597 125.185 37.6597C123.471 37.6597 122.175 37.1352 121.327 36.0636C120.461 35.009 120.031 33.5991 120.031 31.8056V21.9473H123.995V31.3544C123.995 33.3396 124.816 34.4225 126.262 34.4225H126.502C128.228 34.4225 129.646 32.6629 129.646 30.5085V21.9417H138.11V16.9449H142.074V21.9417H145.486V25.1789H142.074ZM160.091 27.1751C160.091 23.6221 157.528 21.6369 153.681 21.6369C149.834 21.6369 147.439 23.7913 147.11 26.7127H151.09C151.18 25.7765 152.118 24.8741 153.547 24.8741H153.798C155.256 24.8741 156.244 25.94 156.244 27.3274V27.7052L152.397 28.0493C150.755 28.1846 149.415 28.664 148.371 29.51C147.327 30.3503 146.808 31.5572 146.808 33.1251C146.763 35.8321 149.075 37.6876 151.816 37.6538C153.77 37.6538 155.378 36.8135 156.333 35.4712C156.361 36.2833 156.422 36.915 156.512 37.3549H160.236C160.13 36.633 160.085 35.505 160.085 33.9654V27.1751H160.091ZM156.244 31.0609C156.244 33.001 154.647 34.4166 152.844 34.4166H152.603C151.515 34.4166 150.711 33.8018 150.711 32.8487C150.711 32.2622 150.934 31.8223 151.381 31.5064C151.827 31.1906 152.347 31.0101 152.933 30.965L156.244 30.621V31.0553V31.0609ZM166.802 23.9379C167.455 22.8099 169.152 21.6369 171.196 21.6369V21.6312C175.472 21.5579 178.018 25.4268 177.974 29.6397C178.018 33.8526 175.472 37.7215 171.196 37.6481C169.158 37.6481 167.455 36.4751 166.802 35.3471V37.3492H162.837V15.7659H166.802V23.9379ZM170.286 34.4109H170.526C172.508 34.4109 174.015 32.5047 174.015 29.6115C174.015 26.7183 172.524 24.8684 170.526 24.8684H170.286C168.465 24.8233 166.768 26.8085 166.796 29.6397C166.768 32.4708 168.465 34.456 170.286 34.4109ZM183.921 15.7659H179.957V37.3492H183.921V15.7659ZM185.947 29.6454C185.903 25.0377 188.734 21.5749 193.206 21.6369H193.211C197.667 21.5918 200.213 24.9643 200.168 29.4649C200.168 29.7638 200.151 30.2488 200.107 30.9087H189.794C189.945 32.9728 191.587 34.4166 193.239 34.4166H193.491C194.92 34.4166 195.886 33.6045 196.17 32.4765H200.107C199.359 35.5445 196.947 37.6538 193.206 37.6538C189.376 37.7159 185.875 34.5689 185.947 29.6454ZM192.943 24.8741C191.274 24.8741 189.889 26.0021 189.8 27.8237H196.327C196.237 26.0021 194.853 24.8741 193.183 24.8741H192.943Z" clip-rule="evenodd" fill-rule="evenodd"/>
<g clip-path="url(#clip1_1838_4945)">
<path fill="#0D0D0D" d="M0.609375 24.6057C0.609375 11.3509 11.3545 0.605713 24.6094 0.605713C37.8642 0.605713 48.6094 11.3509 48.6094 24.6057C48.6094 37.8605 37.8642 48.6057 24.6094 48.6057C11.3545 48.6057 0.609375 37.8605 0.609375 24.6057Z"/>
<path fill="url(#paint0_radial_1838_4945)" d="M23.6776 9.7718C24.3441 9.44523 25.0464 9.4676 25.6928 9.83442C27.934 11.1116 30.1685 12.3999 32.3918 13.7017C33.1076 14.1222 33.4744 14.7955 33.4766 15.6231C33.4901 18.5241 33.4856 21.4229 33.4766 24.3239C33.4766 24.4313 33.4073 24.5878 33.3201 24.6393C32.4589 25.1537 31.5866 25.648 30.6405 26.1938V25.7375C30.6405 22.7537 30.6315 19.7722 30.6472 16.7884C30.6494 16.2158 30.4526 15.8467 29.9448 15.5582C27.3435 14.0797 24.7557 12.5744 22.1633 11.078C22.0515 11.0132 21.9419 10.9438 21.7719 10.8409C22.4384 10.4629 23.0379 10.0827 23.6731 9.7718H23.6776ZM23.2011 39.4508C23.0558 39.377 22.9484 39.3256 22.8433 39.2652C19.4099 37.2857 15.981 35.2928 12.5365 33.3289C11.5702 32.7787 11.1296 31.9936 11.1407 30.8909C11.1609 28.5468 11.1542 26.2027 11.143 23.8564C11.1385 22.7984 11.568 22.0313 12.4984 21.5034C14.9163 20.1278 17.3208 18.7321 19.7253 17.3341C19.9333 17.2134 20.0854 17.1932 20.3024 17.323C21.1322 17.8217 21.9777 18.2982 22.8612 18.8081C22.6934 18.9088 22.5659 18.9848 22.4362 19.0609C19.8326 20.564 17.2336 22.0715 14.6233 23.5656C14.1961 23.8094 13.997 24.1271 14.0015 24.6236C14.0149 26.4711 14.0172 28.3187 14.0015 30.1662C13.997 30.6762 14.2006 31.0005 14.639 31.251C17.3924 32.8257 20.1346 34.4182 22.8858 35.9973C23.1184 36.1315 23.2168 36.2702 23.2123 36.5476C23.1922 37.4937 23.2056 38.4421 23.2056 39.4531L23.2011 39.4508ZM23.2011 34.1587C22.9618 34.0223 22.7896 33.9261 22.6174 33.8255C20.4343 32.5662 18.2535 31.3025 16.066 30.0521C15.8289 29.9179 15.7417 29.7725 15.7439 29.4974C15.7596 28.0771 15.7529 26.6568 15.7484 25.2365C15.7484 25.0441 15.7775 24.9121 15.9676 24.8048C16.7728 24.3552 17.5691 23.8855 18.3676 23.427C18.4257 23.3934 18.4884 23.3688 18.5935 23.3174V24.9121C18.5935 25.7755 18.6069 26.6411 18.589 27.5045C18.5778 27.9966 18.768 28.3299 19.1974 28.5714C20.4343 29.2693 21.6556 29.994 22.8925 30.6896C23.1363 30.826 23.2101 30.9781 23.2056 31.2465C23.19 32.1904 23.1989 33.1366 23.1989 34.1565L23.2011 34.1587ZM20.6804 15.5157C20.2174 15.2428 19.8215 15.245 19.3585 15.5157C16.7639 17.0322 14.1581 18.5286 11.5545 20.0316C11.4449 20.0965 11.3309 20.1546 11.1363 20.2598C11.2056 19.2711 10.9931 18.3384 11.3309 17.4348C11.5143 16.9405 11.8587 16.5692 12.315 16.3053C14.4869 15.0505 16.6565 13.7934 18.8328 12.5453C19.6269 12.089 20.4366 12.1002 21.2306 12.5587C23.7022 13.9813 26.1715 15.4083 28.6364 16.8398C28.7415 16.9002 28.8735 17.0367 28.8735 17.1395C28.8914 18.155 28.8846 19.1727 28.8846 20.262C27.9877 19.7453 27.1601 19.2667 26.3325 18.788C24.447 17.6987 22.557 16.6206 20.6804 15.5157ZM38.0485 31.4836C37.9836 32.2821 37.5161 32.848 36.825 33.2462C34.179 34.7671 31.5352 36.297 28.8914 37.8225C28.0615 38.3011 27.2317 38.7798 26.3996 39.2585C26.299 39.3166 26.1961 39.3658 26.0597 39.4374C26.0507 39.2987 26.0395 39.1981 26.0395 39.0974C26.0395 38.2206 26.044 37.3461 26.0351 36.4693C26.0351 36.2702 26.082 36.1494 26.2654 36.0443C30.1216 33.8255 33.9754 31.5999 37.827 29.3766C37.8852 29.3431 37.9501 29.3162 38.0597 29.2648C38.0597 30.0432 38.1044 30.7679 38.0485 31.4836ZM38.0686 25.9634C38.0619 26.8715 37.5721 27.509 36.7959 27.9563C33.7808 29.6898 30.768 31.4322 27.7551 33.1724C27.2049 33.49 26.6524 33.8053 26.0619 34.1453C26.053 33.9955 26.0418 33.897 26.0418 33.7964C26.0418 32.933 26.0507 32.0674 26.0351 31.204C26.0306 30.958 26.1133 30.8283 26.3258 30.7053C29.0658 29.1328 31.7969 27.5425 34.5413 25.9791C35.0289 25.7017 35.2436 25.3595 35.2392 24.7869C35.219 21.8031 35.2302 18.8193 35.2302 15.8355V15.3144C35.946 15.7461 36.617 16.1017 37.2298 16.5356C37.789 16.9315 38.0708 17.531 38.0731 18.2221C38.082 20.8033 38.0887 23.3845 38.0709 25.9656L38.0686 25.9634Z"/>
<path fill="url(#paint1_radial_1838_4945)" d="M23.6776 9.7718C24.3441 9.44523 25.0464 9.4676 25.6928 9.83442C27.934 11.1116 30.1685 12.3999 32.3918 13.7017C33.1076 14.1222 33.4744 14.7955 33.4766 15.6231C33.4901 18.5241 33.4856 21.4229 33.4766 24.3239C33.4766 24.4313 33.4073 24.5878 33.3201 24.6393C32.4589 25.1537 31.5866 25.648 30.6405 26.1938V25.7375C30.6405 22.7537 30.6315 19.7722 30.6472 16.7884C30.6494 16.2158 30.4526 15.8467 29.9448 15.5582C27.3435 14.0797 24.7557 12.5744 22.1633 11.078C22.0515 11.0132 21.9419 10.9438 21.7719 10.8409C22.4384 10.4629 23.0379 10.0827 23.6731 9.7718H23.6776ZM23.2011 39.4508C23.0558 39.377 22.9484 39.3256 22.8433 39.2652C19.4099 37.2857 15.981 35.2928 12.5365 33.3289C11.5702 32.7787 11.1296 31.9936 11.1407 30.8909C11.1609 28.5468 11.1542 26.2027 11.143 23.8564C11.1385 22.7984 11.568 22.0313 12.4984 21.5034C14.9163 20.1278 17.3208 18.7321 19.7253 17.3341C19.9333 17.2134 20.0854 17.1932 20.3024 17.323C21.1322 17.8217 21.9777 18.2982 22.8612 18.8081C22.6934 18.9088 22.5659 18.9848 22.4362 19.0609C19.8326 20.564 17.2336 22.0715 14.6233 23.5656C14.1961 23.8094 13.997 24.1271 14.0015 24.6236C14.0149 26.4711 14.0172 28.3187 14.0015 30.1662C13.997 30.6762 14.2006 31.0005 14.639 31.251C17.3924 32.8257 20.1346 34.4182 22.8858 35.9973C23.1184 36.1315 23.2168 36.2702 23.2123 36.5476C23.1922 37.4937 23.2056 38.4421 23.2056 39.4531L23.2011 39.4508ZM23.2011 34.1587C22.9618 34.0223 22.7896 33.9261 22.6174 33.8255C20.4343 32.5662 18.2535 31.3025 16.066 30.0521C15.8289 29.9179 15.7417 29.7725 15.7439 29.4974C15.7596 28.0771 15.7529 26.6568 15.7484 25.2365C15.7484 25.0441 15.7775 24.9121 15.9676 24.8048C16.7728 24.3552 17.5691 23.8855 18.3676 23.427C18.4257 23.3934 18.4884 23.3688 18.5935 23.3174V24.9121C18.5935 25.7755 18.6069 26.6411 18.589 27.5045C18.5778 27.9966 18.768 28.3299 19.1974 28.5714C20.4343 29.2693 21.6556 29.994 22.8925 30.6896C23.1363 30.826 23.2101 30.9781 23.2056 31.2465C23.19 32.1904 23.1989 33.1366 23.1989 34.1565L23.2011 34.1587ZM20.6804 15.5157C20.2174 15.2428 19.8215 15.245 19.3585 15.5157C16.7639 17.0322 14.1581 18.5286 11.5545 20.0316C11.4449 20.0965 11.3309 20.1546 11.1363 20.2598C11.2056 19.2711 10.9931 18.3384 11.3309 17.4348C11.5143 16.9405 11.8587 16.5692 12.315 16.3053C14.4869 15.0505 16.6565 13.7934 18.8328 12.5453C19.6269 12.089 20.4366 12.1002 21.2306 12.5587C23.7022 13.9813 26.1715 15.4083 28.6364 16.8398C28.7415 16.9002 28.8735 17.0367 28.8735 17.1395C28.8914 18.155 28.8846 19.1727 28.8846 20.262C27.9877 19.7453 27.1601 19.2667 26.3325 18.788C24.447 17.6987 22.557 16.6206 20.6804 15.5157ZM38.0485 31.4836C37.9836 32.2821 37.5161 32.848 36.825 33.2462C34.179 34.7671 31.5352 36.297 28.8914 37.8225C28.0615 38.3011 27.2317 38.7798 26.3996 39.2585C26.299 39.3166 26.1961 39.3658 26.0597 39.4374C26.0507 39.2987 26.0395 39.1981 26.0395 39.0974C26.0395 38.2206 26.044 37.3461 26.0351 36.4693C26.0351 36.2702 26.082 36.1494 26.2654 36.0443C30.1216 33.8255 33.9754 31.5999 37.827 29.3766C37.8852 29.3431 37.9501 29.3162 38.0597 29.2648C38.0597 30.0432 38.1044 30.7679 38.0485 31.4836ZM38.0686 25.9634C38.0619 26.8715 37.5721 27.509 36.7959 27.9563C33.7808 29.6898 30.768 31.4322 27.7551 33.1724C27.2049 33.49 26.6524 33.8053 26.0619 34.1453C26.053 33.9955 26.0418 33.897 26.0418 33.7964C26.0418 32.933 26.0507 32.0674 26.0351 31.204C26.0306 30.958 26.1133 30.8283 26.3258 30.7053C29.0658 29.1328 31.7969 27.5425 34.5413 25.9791C35.0289 25.7017 35.2436 25.3595 35.2392 24.7869C35.219 21.8031 35.2302 18.8193 35.2302 15.8355V15.3144C35.946 15.7461 36.617 16.1017 37.2298 16.5356C37.789 16.9315 38.0708 17.531 38.0731 18.2221C38.082 20.8033 38.0887 23.3845 38.0709 25.9656L38.0686 25.9634Z"/>
</g>
</g>
<path fill="white" d="M206.914 37.2518V34.9183L216.101 23.6937H207.505V21.3601H219.232V23.6937L210.075 34.9183H219.409V37.2518H206.914Z"/>
<path fill="white" d="M222.489 15.8364H225.177V28.5084L231.587 21.3601H234.895L228.84 27.9472L235.722 37.2518H232.444L227.038 29.9263L225.177 31.9349V37.2518H222.489V15.8364Z"/>
<path fill="white" d="M237.816 37.2518V15.8364H252.349V18.4358H240.829V24.9343H251.67V27.5337H240.829V34.6524H252.349V37.2518H237.816Z"/>
<path fill="white" d="M253.716 15.8364H257.024L262.962 34.1503L268.781 15.8364H271.941L264.675 37.2518H261.071L253.716 15.8364Z"/>
<path fill="white" d="M286.879 37.2518H283.689L277.781 18.5835V37.2518H274.768V15.8364H279.819L285.284 33.6777L290.748 15.8364H295.799V37.2518H292.787V18.5835L286.879 37.2518Z"/>
<defs>
<radialGradient gradientTransform="translate(18.2859 17.4452) rotate(47.9634) scale(29.574 62.3845)" gradientUnits="userSpaceOnUse" r="1" cy="0" cx="0" id="paint0_radial_1838_4945">
<stop stop-color="#A3EEF8"/>
<stop stop-color="#A4DCF5" offset="0.177083"/>
<stop stop-color="#A6AEEC" offset="0.380208"/>
<stop stop-color="#ECBEE1" offset="1"/>
</radialGradient>
<radialGradient gradientTransform="translate(25.7762 37.5965) rotate(84.8296) scale(16.0795 27.7668)" gradientUnits="userSpaceOnUse" r="1" cy="0" cx="0" id="paint1_radial_1838_4945">
<stop stop-color="#FCF5EE"/>
<stop stop-opacity="0" stop-color="#ECBEE1" offset="0.715135"/>
</radialGradient>
<clipPath id="clip0_1838_4945">
<rect transform="translate(0.609375 0.605713)" fill="white" height="48" width="200"/>
</clipPath>
<clipPath id="clip1_1838_4945">
<rect fill="white" rx="24" height="48" width="48" y="0.605713" x="0.609375"/>
</clipPath>
</defs>
</svg>

<svg xmlns="http://www.w3.org/2000/svg" width="49.676" height="50.371" fill="none" style="max-height:500px"><g clip-path="url(#a)"><path fill="#fff" fill-rule="evenodd" d="M60.016 15.766h4.114v21.583h-4.114V15.766Zm20.63 8.522c1.117-1.794 2.993-2.65 5.036-2.65l.011-.007c1.876 0 3.25.542 4.127 1.625.865 1.1 1.295 2.56 1.295 4.382v9.711H87.15v-9.243c0-2.047-.732-3.085-2.356-3.085h-.24c-1.838 0-3.267 1.607-3.267 3.762v8.566h-3.964v-9.243c0-2.047-.76-3.085-2.384-3.085h-.24c-1.832 0-3.278 1.607-3.278 3.762v8.566h-3.964V21.936h3.965v2.183c1.027-1.67 2.73-2.482 4.561-2.482 2.16 0 3.825.902 4.662 2.65Zm31.395-2.65c-2.043 0-3.919.856-5.036 2.65-.832-1.749-2.501-2.65-4.662-2.65-1.831 0-3.534.811-4.562 2.48v-2.182h-3.964v15.413h3.965v-8.566c0-2.155 1.446-3.762 3.277-3.762h.24c1.625 0 2.384 1.038 2.384 3.085v9.243h3.964v-8.566c0-2.155 1.43-3.762 3.266-3.762h.241c1.624 0 2.356 1.038 2.356 3.085v9.243h3.964v-9.711c0-1.822-.43-3.283-1.295-4.382-.877-1.083-2.251-1.625-4.127-1.625l-.011.006Zm30.033 3.54v7.09l-.005-.006c0 1.416.284 1.704 1.686 1.704h2.188v3.39h-3.874c-2.58 0-3.965-1.4-3.965-4.005v-8.172h-4.5v12.176h-3.964V35.1c-.938 1.58-2.563 2.56-4.455 2.56-1.714 0-3.01-.524-3.858-1.595-.866-1.055-1.296-2.465-1.296-4.258v-9.859h3.964v9.407c0 1.986.821 3.069 2.267 3.069h.24c1.726 0 3.144-1.76 3.144-3.915v-8.566h8.464v-4.997h3.964v4.997h3.412v3.237h-3.412Zm18.017 1.997c0-3.553-2.563-5.538-6.41-5.538s-6.242 2.154-6.571 5.076h3.98c.09-.937 1.028-1.839 2.457-1.839h.251c1.458 0 2.446 1.066 2.446 2.453v.378l-3.847.344c-1.642.136-2.982.615-4.026 1.461-1.044.84-1.563 2.047-1.563 3.615-.045 2.707 2.267 4.563 5.008 4.529 1.954 0 3.562-.84 4.517-2.183.028.812.089 1.444.179 1.884h3.724c-.106-.722-.151-1.85-.151-3.39v-6.79h.006Zm-3.847 3.886c0 1.94-1.597 3.356-3.4 3.356h-.241c-1.088 0-1.892-.615-1.892-1.568 0-.587.223-1.027.67-1.343a3.04 3.04 0 0 1 1.552-.541l3.311-.344v.44Zm10.558-7.123c.653-1.128 2.35-2.301 4.394-2.301v-.006c4.276-.073 6.822 3.796 6.778 8.009.044 4.213-2.502 8.081-6.778 8.008-2.038 0-3.741-1.173-4.394-2.3v2.001h-3.965V15.766h3.965v8.172Zm3.484 10.473h.24c1.982 0 3.489-1.906 3.489-4.8 0-2.893-1.491-4.743-3.489-4.743h-.24c-1.821-.045-3.518 1.94-3.49 4.772-.028 2.83 1.669 4.816 3.49 4.77Zm13.635-18.645h-3.964v21.583h3.964V15.766Zm2.026 13.88c-.044-4.608 2.787-8.071 7.259-8.01h.005c4.456-.044 7.002 3.328 6.957 7.829 0 .299-.017.784-.061 1.444h-10.313c.151 2.064 1.793 3.508 3.445 3.508h.252c1.429 0 2.395-.813 2.679-1.94h3.937c-.748 3.068-3.16 5.177-6.901 5.177-3.83.062-7.331-3.085-7.259-8.009Zm6.996-4.772c-1.669 0-3.054 1.128-3.143 2.95h6.527c-.09-1.822-1.474-2.95-3.144-2.95h-.24Z" clip-rule="evenodd"/><g clip-path="url(#b)"><path fill="#0D0D0D" d="M.61 24.606c0-13.255 10.745-24 24-24 13.254 0 24 10.745 24 24s-10.746 24-24 24c-13.255 0-24-10.745-24-24Z"/><path fill="url(#c)" d="M23.678 9.772a2.083 2.083 0 0 1 2.015.062 658.85 658.85 0 0 1 6.699 3.868c.716.42 1.082 1.094 1.085 1.921.013 2.901.009 5.8 0 8.7 0 .108-.07.265-.157.316-.861.515-1.733 1.009-2.68 1.555v-.456c0-2.984-.009-5.966.007-8.95.002-.572-.194-.941-.702-1.23-2.602-1.478-5.19-2.984-7.782-4.48-.111-.065-.221-.134-.391-.237.666-.378 1.266-.758 1.901-1.07h.005ZM23.2 39.45c-.145-.074-.253-.125-.358-.186-3.433-1.98-6.862-3.972-10.306-5.936-.967-.55-1.407-1.335-1.396-2.438.02-2.344.013-4.688.002-7.035-.005-1.058.425-1.825 1.355-2.353a889.076 889.076 0 0 0 7.227-4.169c.208-.12.36-.14.577-.011.83.499 1.676.975 2.56 1.485-.169.1-.296.177-.426.253-2.603 1.503-5.202 3.01-7.813 4.505-.427.243-.626.561-.621 1.058a351.9 351.9 0 0 1 0 5.542c-.005.51.199.834.637 1.085 2.753 1.575 5.496 3.167 8.247 4.746.232.135.33.273.326.55-.02.947-.006 1.895-.006 2.906l-.005-.002Zm0-5.292c-.24-.137-.411-.233-.584-.334-2.183-1.259-4.364-2.523-6.551-3.773-.237-.134-.324-.28-.322-.555.016-1.42.009-2.84.004-4.26 0-.193.03-.325.22-.432.805-.45 1.601-.92 2.4-1.378.058-.034.12-.058.226-.11v1.595c0 .864.013 1.73-.005 2.593-.011.492.179.825.608 1.066 1.237.698 2.459 1.423 3.695 2.119.244.136.318.288.314.556-.016.944-.007 1.89-.007 2.91l.002.003Zm-2.52-18.643c-.464-.273-.86-.271-1.323 0-2.594 1.516-5.2 3.013-7.803 4.516-.11.064-.224.123-.419.228.07-.989-.143-1.922.195-2.825.183-.494.528-.866.984-1.13 2.172-1.255 4.342-2.512 6.518-3.76.794-.456 1.604-.445 2.398.014 2.471 1.422 4.94 2.85 7.405 4.28.105.061.238.198.238.3.017 1.016.01 2.034.01 3.123l-2.552-1.474c-1.885-1.09-3.775-2.167-5.652-3.272Zm17.367 15.968c-.064.798-.532 1.364-1.223 1.762-2.646 1.521-5.29 3.051-7.934 4.576-.83.48-1.66.958-2.491 1.436-.101.059-.204.108-.34.18-.01-.14-.02-.24-.02-.34 0-.877.004-1.752-.005-2.629 0-.199.047-.32.23-.425 3.857-2.218 7.71-4.444 11.562-6.667.058-.034.123-.06.233-.112 0 .778.044 1.503-.012 2.219Zm.02-5.52c-.006.908-.496 1.545-1.272 1.992-3.015 1.734-6.028 3.476-9.04 5.216-.551.318-1.104.633-1.694.973-.009-.15-.02-.248-.02-.349 0-.863.009-1.729-.007-2.592-.004-.246.078-.376.29-.499 2.74-1.572 5.472-3.162 8.216-4.726.488-.277.703-.62.698-1.192-.02-2.984-.009-5.968-.009-8.951v-.522c.716.432 1.387.788 2 1.222.559.395.84.995.843 1.686.009 2.581.016 5.162-.002 7.744l-.002-.003Z"/><path fill="url(#d)" d="M23.678 9.772a2.083 2.083 0 0 1 2.015.062 658.85 658.85 0 0 1 6.699 3.868c.716.42 1.082 1.094 1.085 1.921.013 2.901.009 5.8 0 8.7 0 .108-.07.265-.157.316-.861.515-1.733 1.009-2.68 1.555v-.456c0-2.984-.009-5.966.007-8.95.002-.572-.194-.941-.702-1.23-2.602-1.478-5.19-2.984-7.782-4.48-.111-.065-.221-.134-.391-.237.666-.378 1.266-.758 1.901-1.07h.005ZM23.2 39.45c-.145-.074-.253-.125-.358-.186-3.433-1.98-6.862-3.972-10.306-5.936-.967-.55-1.407-1.335-1.396-2.438.02-2.344.013-4.688.002-7.035-.005-1.058.425-1.825 1.355-2.353a889.076 889.076 0 0 0 7.227-4.169c.208-.12.36-.14.577-.011.83.499 1.676.975 2.56 1.485-.169.1-.296.177-.426.253-2.603 1.503-5.202 3.01-7.813 4.505-.427.243-.626.561-.621 1.058a351.9 351.9 0 0 1 0 5.542c-.005.51.199.834.637 1.085 2.753 1.575 5.496 3.167 8.247 4.746.232.135.33.273.326.55-.02.947-.006 1.895-.006 2.906l-.005-.002Zm0-5.292c-.24-.137-.411-.233-.584-.334-2.183-1.259-4.364-2.523-6.551-3.773-.237-.134-.324-.28-.322-.555.016-1.42.009-2.84.004-4.26 0-.193.03-.325.22-.432.805-.45 1.601-.92 2.4-1.378.058-.034.12-.058.226-.11v1.595c0 .864.013 1.73-.005 2.593-.011.492.179.825.608 1.066 1.237.698 2.459 1.423 3.695 2.119.244.136.318.288.314.556-.016.944-.007 1.89-.007 2.91l.002.003Zm-2.52-18.643c-.464-.273-.86-.271-1.323 0-2.594 1.516-5.2 3.013-7.803 4.516-.11.064-.224.123-.419.228.07-.989-.143-1.922.195-2.825.183-.494.528-.866.984-1.13 2.172-1.255 4.342-2.512 6.518-3.76.794-.456 1.604-.445 2.398.014 2.471 1.422 4.94 2.85 7.405 4.28.105.061.238.198.238.3.017 1.016.01 2.034.01 3.123l-2.552-1.474c-1.885-1.09-3.775-2.167-5.652-3.272Zm17.367 15.968c-.064.798-.532 1.364-1.223 1.762-2.646 1.521-5.29 3.051-7.934 4.576-.83.48-1.66.958-2.491 1.436-.101.059-.204.108-.34.18-.01-.14-.02-.24-.02-.34 0-.877.004-1.752-.005-2.629 0-.199.047-.32.23-.425 3.857-2.218 7.71-4.444 11.562-6.667.058-.034.123-.06.233-.112 0 .778.044 1.503-.012 2.219Zm.02-5.52c-.006.908-.496 1.545-1.272 1.992-3.015 1.734-6.028 3.476-9.04 5.216-.551.318-1.104.633-1.694.973-.009-.15-.02-.248-.02-.349 0-.863.009-1.729-.007-2.592-.004-.246.078-.376.29-.499 2.74-1.572 5.472-3.162 8.216-4.726.488-.277.703-.62.698-1.192-.02-2.984-.009-5.968-.009-8.951v-.522c.716.432 1.387.788 2 1.222.559.395.84.995.843 1.686.009 2.581.016 5.162-.002 7.744l-.002-.003Z"/></g></g><path fill="#fff" d="M206.914 37.252v-2.334l9.187-11.224h-8.596V21.36h11.727v2.334l-9.157 11.224h9.334v2.334h-12.495ZM222.489 15.836h2.688v12.672l6.41-7.148h3.308l-6.055 6.587 6.882 9.305h-3.278l-5.406-7.326-1.861 2.009v5.317h-2.688V15.836ZM237.816 37.252V15.836h14.533v2.6h-11.52v6.498h10.841v2.6h-10.841v7.118h11.52v2.6h-14.533ZM253.716 15.836h3.308l5.938 18.314 5.819-18.314h3.16l-7.266 21.416h-3.604l-7.355-21.416ZM286.879 37.252h-3.19l-5.908-18.669v18.669h-3.013V15.836h5.051l5.465 17.842 5.464-17.842h5.051v21.416h-3.012V18.583l-5.908 18.669Z"/><defs><radialGradient id="c" cx="0" cy="0" r="1" gradientTransform="matrix(19.8029 21.96512 -46.33404 41.77298 18.286 17.445)" gradientUnits="userSpaceOnUse"><stop stop-color="#A3EEF8"/><stop offset=".177" stop-color="#A4DCF5"/><stop offset=".38" stop-color="#A6AEEC"/><stop offset="1" stop-color="#ECBEE1"/></radialGradient><radialGradient id="d" cx="0" cy="0" r="1" gradientTransform="rotate(84.83 -7.688 32.905) scale(16.0795 27.7668)" gradientUnits="userSpaceOnUse"><stop stop-color="#FCF5EE"/><stop offset=".715" stop-color="#ECBEE1" stop-opacity="0"/></radialGradient><clipPath id="a"><path fill="#fff" d="M.61.606h200v48H.61z"/></clipPath><clipPath id="b"><rect width="48" height="48" x=".609" y=".606" fill="#fff" rx="24"/></clipPath></defs></svg>
